X:36
T:Malborough March. BC.36
M:C|
L:1/4
Q:100
S:Benjamin Cooke MS.circa 1770, F.Kidson Coll.
O:England
A:x
N:Almost identical to. BC.3
Z:vmp.John Bagnall
K:D
F/G/ | A2 A2 | A2 z d/e/ | f/e/f/g/f f |f2 a2 | f/e/f/g/ f f | f2 a2 |fe/f/ g/f/e/d/ | e3 :|
|:c/d/ | e2 e2 | e3 a | A/B/c/d/ e f | g2 a2 | f e/f/ g/f/e/d/ | eAa>g | f/a/g/f/ e>d | d3 |]
W: Almost identical to BC.34

